X:7
T:Unknown
M:C
L:1/8
S:Martin Hayes
N:Rodney calls this "McGuinness' Delight" and Alasdair, "Clydeside Lasses"
K:F
AFcF dFcF|AFcF BdcB|AFcF dFcF|BAGA BdcB|
AFcF dFcF|AFcF BdcB|Acfa gecA|[1BAGA BdcB:|[2BAGA Bcde||
f3 f fcAc|fAcf efge|f3 f2 cAc|BAGA Bcde|
f3 f fcAc|fAcf efge|afge fcAc|[1 BAGA Bcde:|[2 BAGA BdcB||
W: var for first line:
AFc/2c/2F dFc/2c/2F|AFc/2c/2F BdcB|AFc/2c/2F dFc/2c/2F|BAGA BdcB|
